X: 67
M:C|
L:1/8
K:G
(uDB,)|G,>DB,>G D>BG>d|B>gf>e ^d>ec>A|\
|:(uFG)|B>A^G>A g>AG>A|B>A^G>A f>AG>A|\


